assets/bed.svg

<?xml version="1.0" encoding="UTF-8"?>
<svg width="22px" height="15px" viewBox="0 0 22 15" version="1.1" xmlns="http://www.w3.org/2000/svg" xmlns:xlink="http://www.w3.org/1999/xlink">
    <!-- Generator: Sketch 47.1 (45422) - http://www.bohemiancoding.com/sketch -->
    <title>Mask</title>
    <desc>Created with Sketch.</desc>
    <defs>
        <path d="M6,8 C7.66,8 9,6.66 9,5 C9,3.34 7.66,2 6,2 C4.34,2 3,3.34 3,5 C3,6.66 4.34,8 6,8 Z M18,2 L10,2 L10,9 L2,9 L2,0 L0,0 L0,15 L2,15 L2,12 L20,12 L20,15 L22,15 L22,6 C22,3.79 20.21,2 18,2 Z" id="path-1"></path>
    </defs>
    <g id="Icons" stroke="none" stroke-width="1" fill="none" fill-rule="evenodd">
        <g id="amenitiy-/-bed" transform="translate(-1.000000, -5.000000)">
            <g id="bed">
                <g id="Icon-🎨" transform="translate(1.000000, 5.000000)">
                    <mask id="mask-2" fill="white">
                        <use xlink:href="#path-1"></use>
                    </mask>
                    <use id="Mask" fill="#001833" fill-rule="nonzero" xlink:href="#path-1"></use>
                </g>
            </g>
        </g>
    </g>
</svg>

<?xml version="1.0" encoding="utf-8"?>
<!-- Generator: Adobe Illustrator 21.1.0, SVG Export Plug-In . SVG Version: 6.00 Build 0)  -->
<svg version="1.1" id="Layer_1" xmlns="http://www.w3.org/2000/svg" xmlns:xlink="http://www.w3.org/1999/xlink" x="0px" y="0px"
	 viewBox="0 0 22 15" style="enable-background:new 0 0 22 15;" xml:space="preserve">
<style type="text/css">
	.st0{fill:#001833;}
</style>
<path id="path-1_1_" class="st0" d="M6,8c1.7,0,3-1.3,3-3S7.7,2,6,2S3,3.3,3,5S4.3,8,6,8z M18,2h-8v7H2V0H0v15h2v-3h18v3h2V6
	C22,3.8,20.2,2,18,2z"/>
</svg>
